packages/core/src/svgs/zlk.svg

<svg width="24" height="24" viewBox="0 0 24 24" fill="none" xmlns="http://www.w3.org/2000/svg">
<g clip-path="url(#clip0_31_21228)">
<path d="M0 0H24V24H0V0Z" fill="#F0F3FA"/>
<path d="M5.14307 8.43C5.14307 8.27572 5.22449 8.13 5.35735 8.05715L11.6488 4.34572C11.7136 4.30745 11.7873 4.28691 11.8625 4.28615C11.9377 4.2854 12.0118 4.30447 12.0774 4.34143L18.6388 8.05715C18.7056 8.09471 18.7612 8.14952 18.7996 8.21585C18.838 8.28219 18.858 8.35762 18.8574 8.43429V15.9943C18.858 16.071 18.838 16.1464 18.7996 16.2127C18.7612 16.2791 18.7056 16.3339 18.6388 16.3714L12.0731 20.0871C12.0079 20.1248 11.934 20.1446 11.8588 20.1446C11.7836 20.1446 11.7096 20.1248 11.6445 20.0871L5.35735 16.3714C5.22449 16.2943 5.14307 16.1529 5.14307 15.9986V8.43ZM7.06307 9.23143C6.93449 9.31286 6.85735 9.45 6.85735 9.6V14.9657C6.85735 15.12 6.93878 15.2614 7.06735 15.3386L11.6402 18.0814C11.7064 18.1207 11.7819 18.1414 11.8588 18.1414C11.9357 18.1414 12.0112 18.1207 12.0774 18.0814L14.0916 16.8729C14.3702 16.7014 14.3659 16.2943 14.0874 16.1271L10.0716 13.77C9.93878 13.6886 9.85735 13.5471 9.85735 13.3929V8.27572C9.8578 8.19943 9.83787 8.12441 9.79963 8.0584C9.7614 7.99238 9.70623 7.93777 9.63983 7.90021C9.57343 7.86264 9.49821 7.84348 9.42193 7.8447C9.34566 7.84592 9.27109 7.86748 9.20592 7.90715L7.06307 9.23572V9.23143Z" fill="black"/>
</g>
<defs>
<clipPath id="clip0_31_21228">
<rect width="24" height="24" fill="white"/>
</clipPath>
</defs>
</svg>

<svg xmlns="http://www.w3.org/2000/svg" width="24" height="24" fill="none" viewBox="0 0 24 24"><g clip-path="url(#a)"><path fill="#F0F3FA" d="M0 0h24v24H0z"/><path fill="#000" d="M5.143 8.43c0-.154.081-.3.214-.373l6.292-3.711a.43.43 0 0 1 .428-.005l6.562 3.716a.43.43 0 0 1 .218.377v7.56a.43.43 0 0 1-.218.377l-6.566 3.716a.43.43 0 0 1-.428 0l-6.288-3.716A.43.43 0 0 1 5.143 16zm1.92.801a.44.44 0 0 0-.206.369v5.366c0 .154.082.295.21.373l4.573 2.742a.43.43 0 0 0 .437 0l2.015-1.208a.437.437 0 0 0-.005-.746l-4.015-2.357a.44.44 0 0 1-.215-.377V8.276a.428.428 0 0 0-.651-.369L7.063 9.236z"/></g><defs><clipPath id="a"><path fill="#fff" d="M0 0h24v24H0z"/></clipPath></defs></svg>
